X:159
T: Der jger im Tannenholz (2-61) S. 188
N: P0934
O: Lothringen
S: PINCK, Louis: Verklingende Weisen, Bd 2, Metz 1928]
R: Liebe, Mord]
M: 3/8
L: 1/16
K: E
=D2 | =D4D2 | =D2E2F2 | =G6 | F4
E2 | E4E2 | E4F2 | =G4E2 | F4
EE | E2F2=G2 | =G4A2 | B6 | B2A2
F2 | =G2F2E2 | F4D2 | E6- | E4

